X: 31
T:Den signede dag
M:3/4
L:1/4
C:anon.
O:Denmark
Z:Transcribed by Frank Nordberg - http://www.musicaviva.com
K:Dm
%http://www.musicaviva.com/abc/denmark.abc
G|BBc|d2c|dBA|G2G|
cdc|FGA|B3|B2G|
BBc|d2c|dBA|G2G|
cdc|GFE|D3|D2E|
FFF|GGF|Bcd|c2A|
GGG|FFE|D3|D2|]
W:
W: From "Falaleiro" http://home.t-online.de/home/pheld/homepage.htm

